build/documents/FileCSVOutline.svg

<svg xmlns="http://www.w3.org/2000/svg" fill="none" viewBox="0 0 24 24" focusable="false"><path fill="none" d="M0 0H24V24H0z"/><path fill="#74767B" fill-rule="evenodd" d="M5 6L5 11C3.34315 11 2 12.3431 2 14L2 18C2 19.6569 3.34315 21 5 21L19 21C20.6569 21 22 19.6569 22 18L22 14C22 12.3431 20.6569 11 19 11L19 9.17966C19 8.42148 18.7129 7.69141 18.1965 7.13629L15.2385 3.95662C14.671 3.34655 13.8752 3 13.042 3L8 3C6.34315 3 5 4.34315 5 6ZM8 4.3L13.042 4.3C13.1461 4.3 13.2491 4.30954 13.3499 4.32811L13.3499 7.04926C13.3499 8.12621 14.223 8.99926 15.2999 8.99926L17.6904 8.99925C17.6968 9.05892 17.7 9.11913 17.7 9.17966L17.7 11L6.3 11L6.3 6C6.3 5.06112 7.06112 4.3 8 4.3ZM14.6499 7.04926L14.6499 5.23254L16.9447 7.69926L15.2999 7.69926C14.9409 7.69926 14.6499 7.40824 14.6499 7.04926ZM19 12.3L5 12.3C4.06112 12.3 3.3 13.0611 3.3 14L3.3 18C3.3 18.9389 4.06112 19.7 5 19.7L19 19.7C19.9389 19.7 20.7 18.9389 20.7 18L20.7 14C20.7 13.0611 19.9389 12.3 19 12.3ZM15.9517 13.9849C15.8147 13.6531 15.4347 13.4951 15.1029 13.632C14.771 13.769 14.613 14.149 14.75 14.4808L16.2079 18.0135C16.2189 18.0409 16.2317 18.0676 16.2463 18.0934C16.2678 18.1314 16.2929 18.1666 16.3207 18.1987C16.3849 18.2727 16.4668 18.3332 16.5635 18.3732C16.6447 18.4067 16.7288 18.4225 16.8115 18.4225C16.8942 18.4225 16.9783 18.4067 17.0595 18.3732C17.1562 18.3332 17.2381 18.2727 17.3023 18.1987C17.3302 18.1666 17.3552 18.1314 17.3768 18.0934C17.3914 18.0676 17.4042 18.0409 17.4152 18.0135L18.8731 14.4808C19.01 14.149 18.852 13.769 18.5202 13.632C18.1883 13.4951 17.8083 13.6531 17.6714 13.9849L16.8115 16.0684L15.9517 13.9849ZM13.3512 14.2329C13.3512 13.8739 13.0601 13.5829 12.7012 13.5829L11.8413 13.5829C11.0079 13.5829 10.3323 14.2585 10.3323 15.0919C10.3323 15.7225 10.7244 16.2866 11.3155 16.5063L12.0686 16.7863C12.1366 16.8115 12.1816 16.8764 12.1816 16.9489C12.1816 17.0447 12.104 17.1224 12.0081 17.1224L10.9823 17.1224C10.6233 17.1224 10.3323 17.4134 10.3323 17.7724C10.3323 18.1314 10.6233 18.4224 10.9823 18.4224L12.0081 18.4224C12.8219 18.4224 13.4816 17.7627 13.4816 16.9489C13.4816 16.3331 13.0987 15.7823 12.5216 15.5677L11.7685 15.2878C11.6866 15.2574 11.6323 15.1792 11.6323 15.0919C11.6323 14.9765 11.7259 14.8829 11.8413 14.8829L12.7012 14.8829C13.0601 14.8829 13.3512 14.5919 13.3512 14.2329ZM7.42354 17.1086C7.06455 17.1086 6.77354 16.8176 6.77354 16.4586L6.77354 15.5413C6.77354 15.1823 7.06455 14.8913 7.42354 14.8913L8.11556 14.8913C8.47455 14.8913 8.76556 14.6003 8.76556 14.2413C8.76556 13.8823 8.47455 13.5913 8.11556 13.5913L7.42354 13.5913C6.34658 13.5913 5.47354 14.4643 5.47354 15.5413L5.47354 16.4586C5.47354 17.5355 6.34658 18.4086 7.42354 18.4086L8.11556 18.4086C8.47455 18.4086 8.76556 18.1176 8.76556 17.7586C8.76556 17.3996 8.47455 17.1086 8.11556 17.1086L7.42354 17.1086Z"/></svg>

<svg xmlns="http://www.w3.org/2000/svg" fill="none" viewBox="0 0 24 24" focusable="false"><path fill="none" d="M0 0h24v24H0z"/><path fill="#74767B" fill-rule="evenodd" d="M5 6v5c-1.66 0-3 1.34-3 3v4c0 1.65 1.34 3 3 3h14c1.65 0 3-1.35 3-3v-4c0-1.66-1.35-3-3-3V9.17c0-.75-.29-1.48-.81-2.04l-2.96-3.18c-.56-.61-1.36-.95-2.19-.95H8C6.34 3 5 4.34 5 6m3-1.71h5.04q.15 0 .3.03v2.72c0 1.08.88 1.95 1.95 1.95h2.4c0 .06.01.12.01.18V11H6.3V6c0-.94.76-1.71 1.7-1.71m6.64 2.75V5.23l2.3 2.46h-1.65c-.35 0-.65-.29-.65-.65M19 12.3H5c-.94 0-1.7.76-1.7 1.7v4c0 .93.76 1.7 1.7 1.7h14c.93 0 1.7-.77 1.7-1.7v-4c0-.94-.77-1.7-1.7-1.7m-3.05 1.68a.65.65 0 0 0-.85-.35c-.33.13-.49.51-.35.85l1.45 3.53c.01.03.03.05.04.08.02.04.05.07.08.1q.09.12.24.18c.08.03.16.05.25.05.08 0 .16-.02.24-.05a.64.64 0 0 0 .32-.28.3.3 0 0 0 .04-.08l1.46-3.53a.644.644 0 0 0-.35-.85.644.644 0 0 0-.85.35l-.86 2.08zm-3.25-.4c.36 0 .65.29.65.65s-.29.65-.65.65h-.86c-.12 0-.21.09-.21.21 0 .08.05.16.13.19l.76.28c.57.22.96.77.96 1.38 0 .82-.66 1.48-1.48 1.48h-1.02c-.36 0-.65-.29-.65-.65s.29-.65.65-.65H12c.1 0 .18-.08.18-.18 0-.07-.05-.13-.12-.16l-.75-.28c-.59-.22-.98-.78-.98-1.41 0-.84.67-1.51 1.51-1.51zM7.42 17.1c-.36 0-.65-.29-.65-.65v-.91c0-.36.29-.65.65-.65h.69c.36 0 .65-.29.65-.65s-.29-.65-.65-.65h-.69c-1.08 0-1.95.87-1.95 1.95v.91c0 1.08.87 1.95 1.95 1.95h.69c.36 0 .65-.29.65-.65s-.29-.65-.65-.65z"/></svg>
